src/components/ExperienceSection/logos/cosuno.svg

<svg width="176" height="40" viewBox="0 0 176 40" fill="none" xmlns="http://www.w3.org/2000/svg">
<path d="M82.9683 10C80.9013 10 78.8807 10.6156 77.162 11.7691C75.4433 12.9225 74.1038 14.5619 73.3127 16.48C72.5217 18.3981 72.3148 20.5087 72.718 22.5449C73.1213 24.5812 74.1166 26.4516 75.5783 27.9196C77.0399 29.3877 78.9021 30.3874 80.9294 30.7924C82.9567 31.1975 85.0581 30.9896 86.9678 30.1951C88.8775 29.4006 90.5098 28.0552 91.6581 26.3289C92.8065 24.6027 93.4195 22.5732 93.4195 20.4971C93.4195 17.7131 92.3184 15.0431 90.3584 13.0745C88.3984 11.1059 85.7402 10 82.9683 10ZM82.9683 26.0442C81.876 26.0437 80.8084 25.7179 79.9004 25.108C78.9924 24.4981 78.2849 23.6315 77.8673 22.6177C77.4497 21.6039 77.3408 20.4885 77.5544 19.4126C77.7679 18.3366 78.2943 17.3485 79.0671 16.573C79.8398 15.7976 80.8241 15.2697 81.8955 15.0561C82.9669 14.8425 84.0773 14.9528 85.0863 15.3731C86.0953 15.7934 86.9576 16.5047 87.564 17.4172C88.1705 18.3297 88.494 19.4023 88.4935 20.4994C88.4932 21.2279 88.35 21.9491 88.0722 22.622C87.7944 23.2949 87.3873 23.9062 86.8743 24.4211C86.3612 24.936 85.7522 25.3443 85.082 25.6228C84.4118 25.9013 83.6936 26.0445 82.9683 26.0442ZM165.549 10C163.482 10 161.461 10.6156 159.743 11.7691C158.024 12.9225 156.684 14.5619 155.893 16.48C155.102 18.3981 154.895 20.5087 155.299 22.5449C155.702 24.5812 156.697 26.4516 158.159 27.9196C159.62 29.3877 161.483 30.3874 163.51 30.7924C165.537 31.1975 167.639 30.9896 169.548 30.1951C171.458 29.4006 173.09 28.0552 174.239 26.3289C175.387 24.6027 176 22.5732 176 20.4971C176 19.1186 175.73 17.7536 175.204 16.48C174.679 15.2065 173.909 14.0493 172.939 13.0745C171.968 12.0998 170.816 11.3266 169.548 10.799C168.28 10.2715 166.921 10 165.549 10ZM165.549 26.0442C164.456 26.0442 163.389 25.7188 162.48 25.1092C161.572 24.4995 160.864 23.6331 160.446 22.6193C160.028 21.6056 159.919 20.4901 160.132 19.414C160.346 18.3379 160.872 17.3495 161.644 16.5738C162.417 15.7982 163.401 15.27 164.473 15.0563C165.544 14.8425 166.655 14.9527 167.664 15.3729C168.673 15.7931 169.535 16.5044 170.142 17.417C170.749 18.3295 171.072 19.4022 171.072 20.4994C171.071 21.9698 170.489 23.3798 169.454 24.4195C168.419 25.4592 167.015 26.0436 165.551 26.0442H165.549ZM111.501 24.5L111.5 24.5011C111.499 27.7082 109.024 31.0315 103.871 30.9965C99.5746 30.9744 97.0635 28.7252 95.8426 26.6668C95.7328 26.4816 95.8013 26.2456 95.9875 26.1376L98.8707 24.4659C99.067 24.3521 99.3173 24.4257 99.4461 24.6127C100.41 26.012 102.327 26.7305 103.769 26.737C105.527 26.737 106.428 25.9789 106.428 24.9362C106.428 24.0544 105.829 23.3313 104.312 23.0094L101.715 22.4075C97.9205 21.5654 96.2042 19.2794 96.2042 16.5128C96.2042 12.9835 99.3186 10.056 103.553 10.0537C107.712 10.0537 109.669 12.1231 110.745 14.0617C110.849 14.248 110.779 14.4806 110.594 14.587L107.164 16.5631C106.979 16.6695 106.744 16.6121 106.631 16.4314C105.954 15.3499 105.2 14.1225 103.599 14.1055C102.205 14.0892 101.084 14.9476 101.084 16.072C101.084 17.033 101.801 17.6349 102.879 17.8355L105.666 18.4373C109.544 19.2443 111.502 21.6115 111.502 24.4988L111.501 24.5ZM130.906 10.3686C131.127 10.3686 131.306 10.5477 131.306 10.7686V22.5988C131.306 24.826 130.425 26.962 128.857 28.5369C127.289 30.1117 125.163 30.9965 122.945 30.9965C120.728 30.9965 118.601 30.1117 117.033 28.5369C115.465 26.962 114.584 24.826 114.584 22.5988V10.7686C114.584 10.5477 114.763 10.3686 114.984 10.3686H119.062C119.282 10.3686 119.462 10.5477 119.462 10.7686V22.6338C119.462 23.5618 119.829 24.4518 120.482 25.108C121.135 25.7642 122.021 26.1328 122.945 26.1328C123.869 26.1328 124.755 25.7642 125.409 25.108C126.062 24.4518 126.429 23.5618 126.429 22.6338V10.7686C126.429 10.5477 126.608 10.3686 126.829 10.3686H130.906ZM66.028 23.5981C66.1514 23.414 66.3955 23.3465 66.5875 23.4571L70.1721 25.5211C70.3631 25.631 70.4298 25.8752 70.3134 26.0622C69.1663 27.9054 67.4756 29.3486 65.472 30.1874C63.346 31.0774 60.9868 31.2371 58.7611 30.6416C56.5354 30.0462 54.5679 28.7289 53.1644 26.8946C51.7609 25.0603 51 22.8116 51 20.4982C51 18.1848 51.7609 15.9362 53.1644 14.1019C54.5679 12.2676 56.5354 10.9503 58.7611 10.3549C60.9868 9.7594 63.346 9.91909 65.472 10.8091C67.4756 11.6479 69.1663 13.091 70.3134 14.9342C70.4298 15.1213 70.3631 15.3654 70.1721 15.4754L66.5875 17.5394C66.3955 17.65 66.1514 17.5824 66.028 17.3984C65.4258 16.5002 64.573 15.7959 63.5726 15.3766C62.4486 14.9056 61.2011 14.8209 60.0242 15.1355C58.8473 15.45 57.8068 16.1464 57.0646 17.1162C56.3224 18.086 55.92 19.275 55.92 20.4982C55.92 21.7215 56.3224 22.9104 57.0646 23.8803C57.8068 24.8501 58.8473 25.5464 60.0242 25.861C61.2011 26.1756 62.4486 26.0908 63.5726 25.6198C64.573 25.2006 65.4258 24.4963 66.028 23.5981Z" fill="#2451B2"/>
<path d="M135.511 30.6C135.511 30.8209 135.69 31 135.911 31H139.988C140.209 31 140.388 30.8209 140.388 30.6V15.6357C140.388 15.4148 140.567 15.2357 140.788 15.2357H144.31C145.234 15.2357 146.12 15.6044 146.773 16.2606C147.427 16.9168 147.794 17.8068 147.794 18.7348V30.6C147.794 30.8209 147.973 31 148.194 31H152.271C152.492 31 152.671 30.8209 152.671 30.6V18.7698C152.671 16.5426 151.79 14.4066 150.222 12.8317C148.654 11.2568 146.527 10.3721 144.31 10.3721L135.907 10.4379C135.688 10.4396 135.511 10.6181 135.511 10.8378L135.511 30.6Z" fill="#2451B2"/>
<path d="M19.8084 3.09668e-06C18.7668 -5.03091e-05 17.8392 -9.799e-05 17.0693 0.0628059C16.2477 0.129934 15.3881 0.280976 14.5491 0.708464C13.3261 1.33164 12.3317 2.32601 11.7085 3.54907C11.281 4.38806 11.13 5.24762 11.0629 6.06923C11 6.83914 11 7.76675 11.0001 8.80831V20.1917C11 21.2333 11 22.1609 11.0629 22.9308C11.13 23.7524 11.281 24.6119 11.7085 25.4509C12.3317 26.674 13.3261 27.6684 14.5491 28.2915C15.3881 28.719 16.2477 28.8701 17.0693 28.9372C17.8392 29.0001 18.7668 29.0001 19.8084 29L21.6 29C21.8209 29 22 28.8209 22 28.6V24.4C22 24.1791 21.8209 24 21.6 24H19.9001C18.7387 24 18.018 23.9981 17.4765 23.9538C16.9675 23.9122 16.8375 23.8459 16.8194 23.8367C16.5372 23.6929 16.3074 23.4632 16.1636 23.181C16.1543 23.1629 16.0878 23.0326 16.0463 22.5236C16.002 21.982 16.0001 21.2614 16.0001 20.1V8.90001C16.0001 7.73865 16.002 7.01799 16.0463 6.47639C16.0878 5.96744 16.1542 5.83742 16.1634 5.81937C16.3072 5.53713 16.5368 5.30731 16.8191 5.1635C16.8371 5.15429 16.9675 5.08778 17.4765 5.0462C18.018 5.00195 18.7387 5.00001 19.9001 5.00001H31.1001C32.2614 5.00001 32.9821 5.00195 33.5237 5.0462C34.0326 5.08778 34.1626 5.15411 34.1807 5.16332C34.4629 5.30713 34.6928 5.53678 34.8366 5.81902C34.8458 5.83707 34.9123 5.96743 34.9539 6.47639C34.9981 7.01799 35.0001 7.73865 35.0001 8.90001V20.1C35.0001 21.2614 34.9981 21.982 34.9539 22.5236C34.9123 23.0326 34.846 23.1626 34.8368 23.1806C34.6929 23.4629 34.4633 23.6927 34.1811 23.8365C34.163 23.8457 34.0326 23.9122 33.5237 23.9538C32.8189 24.0114 32.1079 24.0048 31.4 24.0012C31.1791 24.0001 31 24.1791 31 24.4V28.6C31 28.8209 31.1791 29.0001 31.4 29.0007C32.2439 29.0028 33.0899 29.0059 33.9308 28.9372C34.7524 28.8701 35.612 28.719 36.451 28.2915C37.6741 27.6684 38.6684 26.674 39.2916 25.4509C39.7191 24.6119 39.8701 23.7524 39.9373 22.9308C40.0002 22.1609 40.0001 21.2332 40.0001 20.1917V8.80835C40.0001 7.76677 40.0002 6.83915 39.9373 6.06923C39.8701 5.24762 39.7191 4.38806 39.2916 3.54907C38.6684 2.32601 37.6741 1.33164 36.451 0.708464C35.612 0.280976 34.7524 0.129934 33.9308 0.0628059C33.1609 -9.799e-05 32.2333 -5.03091e-05 31.1918 3.09668e-06H19.8084Z" fill="#2451B2"/>
<path d="M9 11.4001C9 11.1791 8.82092 11 8.60001 10.9994C7.75615 10.9973 6.91018 10.9942 6.06923 11.0629C5.24762 11.13 4.38806 11.281 3.54907 11.7085C2.32601 12.3317 1.33164 13.3261 0.708464 14.5491C0.280976 15.3881 0.129934 16.2477 0.0628059 17.0693C-9.799e-05 17.8392 -5.03091e-05 18.7668 3.09668e-06 19.8084V31.1918C-5.03091e-05 32.2333 -9.799e-05 33.1609 0.0628059 33.9308C0.129934 34.7524 0.280976 35.612 0.708464 36.451C1.33164 37.6741 2.32601 38.6684 3.54907 39.2916C4.38806 39.7191 5.24762 39.8701 6.06923 39.9373C6.83915 40.0002 7.76677 40.0001 8.80835 40.0001H20.1917C21.2332 40.0001 22.1609 40.0002 22.9308 39.9373C23.7524 39.8701 24.6119 39.7191 25.4509 39.2916C26.674 38.6684 27.6684 37.6741 28.2915 36.451C28.719 35.612 28.8701 34.7524 28.9372 33.9308C29.0001 33.1609 29.0001 32.2333 29 31.1917V19.8084C29.0001 18.7668 29.0001 17.8392 28.9372 17.0693C28.8701 16.2477 28.719 15.3881 28.2915 14.5491C27.6684 13.3261 26.674 12.3317 25.4509 11.7085C24.6119 11.281 23.7524 11.13 22.9308 11.0629C22.1609 11 21.2333 11 20.1917 11.0001L18.4 11.0001C18.1791 11.0001 18 11.1792 18 11.4001V15.6001C18 15.821 18.1791 16.0001 18.4 16.0001H20.1C21.2614 16.0001 21.982 16.002 22.5236 16.0463C23.0326 16.0878 23.1626 16.1542 23.1806 16.1634C23.4629 16.3072 23.6927 16.5368 23.8365 16.8191C23.8457 16.8371 23.9122 16.9675 23.9538 17.4765C23.9981 18.018 24 18.7387 24 19.9001V31.1001C24 32.2614 23.9981 32.9821 23.9538 33.5237C23.9122 34.0326 23.8459 34.1626 23.8367 34.1807C23.6929 34.4629 23.4632 34.6928 23.181 34.8366C23.1629 34.8458 23.0326 34.9123 22.5236 34.9539C21.982 34.9981 21.2614 35.0001 20.1 35.0001H8.90001C7.73865 35.0001 7.01799 34.9981 6.47639 34.9539C5.96744 34.9123 5.83742 34.846 5.81937 34.8368C5.53713 34.6929 5.30731 34.4633 5.1635 34.1811C5.15429 34.163 5.08778 34.0326 5.0462 33.5237C5.00195 32.9821 5.00001 32.2614 5.00001 31.1001V19.9001C5.00001 18.7387 5.00195 18.018 5.0462 17.4765C5.08778 16.9675 5.15411 16.8375 5.16332 16.8194C5.30713 16.5372 5.53678 16.3074 5.81902 16.1636C5.83707 16.1544 5.96744 16.0878 6.47639 16.0463C7.18119 15.9887 7.89213 15.9953 8.6 15.9988C8.82091 15.9999 9 15.821 9 15.6001V11.4001Z" fill="#2451B2"/>
</svg>

<svg xmlns="http://www.w3.org/2000/svg" width="176" height="40" fill="none" viewBox="0 0 176 40"><path fill="#fff" d="M82.968 10c-2.067 0-4.087.616-5.806 1.77a10.5 10.5 0 0 0-3.85 4.71 10.54 10.54 0 0 0-.594 6.065 10.5 10.5 0 0 0 2.86 5.375 10.44 10.44 0 0 0 5.351 2.872c2.028.406 4.13.198 6.039-.597a10.46 10.46 0 0 0 4.69-3.866 10.53 10.53 0 0 0-1.3-13.254A10.43 10.43 0 0 0 82.968 10m0 16.044a5.5 5.5 0 0 1-3.068-.936 5.54 5.54 0 0 1-2.033-2.49 5.57 5.57 0 0 1 1.2-6.045 5.5 5.5 0 0 1 6.02-1.2 5.53 5.53 0 0 1 2.477 2.044 5.564 5.564 0 0 1-.69 7.004 5.52 5.52 0 0 1-3.906 1.623M165.55 10c-2.067 0-4.088.616-5.806 1.77a10.5 10.5 0 0 0-3.85 4.71 10.53 10.53 0 0 0 2.266 11.44 10.44 10.44 0 0 0 5.351 2.872c2.027.406 4.129.198 6.038-.597a10.46 10.46 0 0 0 4.691-3.866 10.53 10.53 0 0 0-1.3-13.254 10.5 10.5 0 0 0-3.391-2.276A10.4 10.4 0 0 0 165.55 10m0 16.044a5.5 5.5 0 0 1-3.069-.935 5.54 5.54 0 0 1-2.034-2.49 5.57 5.57 0 0 1 1.198-6.045 5.5 5.5 0 0 1 6.02-1.2 5.53 5.53 0 0 1 2.478 2.043 5.565 5.565 0 0 1-.688 7.002 5.5 5.5 0 0 1-3.903 1.625zM111.501 24.5l-.001.001c-.001 3.207-2.476 6.53-7.629 6.496-4.296-.023-6.807-2.272-8.028-4.33a.385.385 0 0 1 .144-.53l2.884-1.671c.196-.114.446-.04.575.147.964 1.399 2.881 2.117 4.323 2.124 1.758 0 2.659-.758 2.659-1.8 0-.883-.599-1.606-2.116-1.928l-2.597-.602c-3.794-.842-5.51-3.128-5.51-5.894 0-3.53 3.114-6.457 7.348-6.46 4.159 0 6.116 2.07 7.192 4.009a.39.39 0 0 1-.151.525l-3.43 1.976a.395.395 0 0 1-.533-.132c-.677-1.081-1.431-2.309-3.032-2.326-1.394-.016-2.515.843-2.515 1.967 0 .961.717 1.563 1.795 1.764l2.787.601c3.878.807 5.836 3.174 5.836 6.062zm19.405-14.131a.4.4 0 0 1 .4.4v11.83a8.42 8.42 0 0 1-2.449 5.938 8.34 8.34 0 0 1-5.912 2.46 8.34 8.34 0 0 1-5.912-2.46 8.42 8.42 0 0 1-2.449-5.938v-11.83a.4.4 0 0 1 .4-.4h4.078a.4.4 0 0 1 .4.4v11.865c0 .928.367 1.818 1.02 2.474a3.474 3.474 0 0 0 4.927 0 3.5 3.5 0 0 0 1.02-2.474V10.769a.4.4 0 0 1 .4-.4zm-64.878 13.23a.424.424 0 0 1 .56-.142l3.584 2.064c.191.11.258.354.141.541a10.46 10.46 0 0 1-4.841 4.125 10.4 10.4 0 0 1-6.71.455 10.45 10.45 0 0 1-5.598-3.747A10.53 10.53 0 0 1 51 20.498c0-2.313.76-4.562 2.164-6.396a10.45 10.45 0 0 1 5.597-3.747 10.4 10.4 0 0 1 6.711.454 10.46 10.46 0 0 1 4.841 4.125.39.39 0 0 1-.14.541l-3.585 2.064a.424.424 0 0 1-.56-.14 5.53 5.53 0 0 0-2.455-2.022 5.5 5.5 0 0 0-3.549-.242 5.52 5.52 0 0 0-2.96 1.981 5.565 5.565 0 0 0 0 6.764 5.52 5.52 0 0 0 2.96 1.981 5.5 5.5 0 0 0 3.549-.241 5.53 5.53 0 0 0 2.455-2.022m69.483 7.002c0 .22.179.4.4.4h4.077a.4.4 0 0 0 .4-.4V15.636a.4.4 0 0 1 .4-.4h3.522c.924 0 1.81.368 2.463 1.025a3.5 3.5 0 0 1 1.021 2.474V30.6c0 .22.179.4.4.4h4.077a.4.4 0 0 0 .4-.4V18.77a8.42 8.42 0 0 0-2.449-5.938 8.34 8.34 0 0 0-5.912-2.46l-8.403.066a.4.4 0 0 0-.396.4zM19.808 0c-1.041 0-1.969 0-2.739.063-.821.067-1.68.218-2.52.645a6.5 6.5 0 0 0-2.84 2.841c-.428.84-.579 1.699-.646 2.52C11 6.84 11 7.767 11 8.81v11.383c0 1.041 0 1.969.063 2.739.067.821.218 1.68.646 2.52a6.5 6.5 0 0 0 2.84 2.84c.84.428 1.699.58 2.52.646.77.063 1.698.063 2.74.063H21.6a.4.4 0 0 0 .4-.4v-4.2a.4.4 0 0 0-.4-.4h-1.7c-1.161 0-1.882-.002-2.423-.046-.51-.042-.64-.108-.658-.117a1.5 1.5 0 0 1-.655-.656c-.01-.018-.076-.148-.118-.657C16.002 21.982 16 21.26 16 20.1V8.9c0-1.161.002-1.882.046-2.424.042-.509.108-.639.117-.657a1.5 1.5 0 0 1 .656-.655c.018-.01.149-.076.658-.118C18.018 5.002 18.739 5 19.9 5h11.2c1.161 0 1.882.002 2.424.046.509.042.639.108.657.117.282.144.512.374.656.656.009.018.075.148.117.657.044.542.046 1.263.046 2.424v11.2c0 1.161-.002 1.882-.046 2.424-.042.509-.108.639-.117.657a1.5 1.5 0 0 1-.656.656c-.018.009-.148.075-.657.117-.705.057-1.416.05-2.124.047a.4.4 0 0 0-.4.399v4.2c0 .22.18.4.4.4.844.003 1.69.006 2.53-.063.822-.067 1.682-.218 2.521-.646a6.5 6.5 0 0 0 2.84-2.84c.428-.84.58-1.699.646-2.52.063-.77.063-1.698.063-2.74V8.809c0-1.041 0-1.969-.063-2.739-.067-.821-.218-1.68-.645-2.52A6.5 6.5 0 0 0 36.45.71c-.839-.428-1.699-.58-2.52-.646C33.16 0 32.233 0 31.19 0z"/><path fill="#fff" d="M9 11.4a.4.4 0 0 0-.4-.4c-.844-.003-1.69-.006-2.53.063-.822.067-1.682.218-2.52.646a6.5 6.5 0 0 0-2.842 2.84c-.427.84-.578 1.699-.645 2.52C0 17.84 0 18.767 0 19.81v11.383c0 1.041 0 1.969.063 2.739.067.821.218 1.681.645 2.52a6.5 6.5 0 0 0 2.841 2.84c.84.428 1.699.58 2.52.646C6.84 40 7.767 40 8.81 40h11.383c1.041 0 1.969 0 2.739-.063.821-.067 1.68-.218 2.52-.645a6.5 6.5 0 0 0 2.84-2.841c.428-.839.58-1.699.646-2.52.063-.77.063-1.698.063-2.74V19.809c0-1.041 0-1.969-.063-2.739-.067-.821-.218-1.68-.646-2.52a6.5 6.5 0 0 0-2.84-2.84c-.84-.428-1.699-.579-2.52-.646C22.16 11 21.233 11 20.19 11H18.4a.4.4 0 0 0-.4.4v4.2c0 .221.18.4.4.4h1.7c1.161 0 1.882.002 2.424.046.509.042.639.108.657.117a1.5 1.5 0 0 1 .656.656c.009.018.075.149.117.658.044.541.046 1.262.046 2.423v11.2c0 1.161-.002 1.882-.046 2.424-.042.509-.108.639-.117.657a1.5 1.5 0 0 1-.656.656c-.018.009-.148.075-.657.117-.542.044-1.263.046-2.424.046H8.9c-1.161 0-1.882-.002-2.424-.046-.509-.042-.639-.108-.657-.117a1.5 1.5 0 0 1-.655-.656c-.01-.018-.076-.148-.118-.657C5.002 32.982 5 32.26 5 31.1V19.9c0-1.161.002-1.882.046-2.423.042-.51.108-.64.117-.658a1.5 1.5 0 0 1 .656-.655c.018-.01.148-.076.657-.118.705-.057 1.416-.05 2.124-.047A.4.4 0 0 0 9 15.6z"/></svg>
